src/assets/images/svg/terra.svg

<svg width="16" height="15" viewBox="0 0 16 15" fill="none" xmlns="http://www.w3.org/2000/svg">
<path opacity="0.32" fill-rule="evenodd" clip-rule="evenodd" d="M6.99748 12.1924C7.41765 13.8117 8.92568 15.0474 9.68694 14.9968C9.7135 14.9949 12.5756 14.4393 14.1422 11.713C15.3617 9.59165 14.9463 7.54353 13.288 7.49901C12.6915 7.54414 6.19637 9.10676 6.99748 12.1924ZM8.43789 1.52965e-05C7.35788 1.52965e-05 6.33281 0.234225 5.40553 0.652022C5.24329 0.720725 5.08524 0.799137 4.93223 0.886842C4.82719 0.943565 4.72215 0.999677 4.62073 1.06067L4.64487 1.0686C4.33759 1.2839 4.07317 1.53458 3.85645 1.8249C1.71152 4.69398 8.90032 6.7793 12.7435 6.78662C14.5123 8.07172 15.0085 3.16734 13.2807 1.80599C11.9327 0.637265 10.2142 -0.00360997 8.43789 1.52965e-05Z" fill="#5493F7"/>
<path fill-rule="evenodd" clip-rule="evenodd" d="M5.73333 1.68203C4.76138 3.12449 1.52316 4.14124 0.990696 3.98266L0.988281 3.97656L1.05469 3.84664C1.61103 2.79196 2.4011 1.88145 3.36322 1.18616C3.56244 1.04161 3.7689 0.906818 3.98201 0.781174C4.43418 0.521957 4.89902 0.506099 5.05176 0.5C6.49338 0.526837 5.74057 1.67044 5.73273 1.68203" fill="#5493F7"/>
<path fill-rule="evenodd" clip-rule="evenodd" d="M4.91953 12.4933C4.99197 12.9672 4.91772 14.8402 4.81992 14.9982C4.73661 15.0031 4.56153 15.0141 4.05624 14.7311C3.07579 14.173 2.2221 13.4133 1.5503 12.5012C1.05885 11.8331 0.673868 11.0914 0.409316 10.303C0.136984 9.48755 -0.00128223 8.6325 1.01049e-05 7.77185C-0.00149787 6.82575 0.165784 5.88712 0.493833 5.00098H0.495041C1.07459 5.76887 1.74469 6.46357 2.31398 7.23939C2.8567 7.9774 3.60287 9.18077 3.75439 9.43816C4.69737 11.0343 4.84769 12.0193 4.91953 12.4933Z" fill="#5493F7"/>
<path fill-rule="evenodd" clip-rule="evenodd" d="M16.0004 7.60905C16.0004 8.63311 15.8072 9.61203 15.4577 10.5098C14.5401 11.5101 8.35096 9.04846 8.28999 9.02163C7.44361 8.64591 4.86703 7.5017 4.63461 5.70487C4.30016 3.12002 9.47504 1.31831 11.7492 1.25C12.0214 1.25305 12.8515 1.26281 13.3351 1.6617C14.1736 2.4034 14.8453 3.31783 15.305 4.34353C15.7647 5.36924 16.0018 6.48247 16.0004 7.60844V7.60905ZM10.5883 14.0029C10.9583 12.6793 14.1941 11.3229 14.9083 11.2497C14.9964 11.2405 15.0339 11.3033 14.9952 11.3753C14.2503 12.744 13.1473 13.8711 11.8126 14.6018C11.1376 14.9324 10.3951 14.6915 10.5883 14.0029Z" fill="#5493F7"/>
</svg>

<svg width="16" height="15" fill="none" xmlns="http://www.w3.org/2000/svg"><path opacity=".32" fill-rule="evenodd" clip-rule="evenodd" d="M6.997 12.192c.42 1.62 1.929 2.855 2.69 2.805.027-.002 2.889-.558 4.455-3.284 1.22-2.121.804-4.17-.854-4.214-.597.045-7.092 1.608-6.29 4.693zM8.437 0a7.36 7.36 0 00-3.031.652c-.163.069-.32.147-.474.235-.105.057-.21.113-.311.174l.024.008a3.427 3.427 0 00-.789.756C1.712 4.694 8.9 6.779 12.743 6.787c1.77 1.285 2.265-3.62.538-4.981A7.369 7.369 0 008.438 0z" fill="#5493F7"/><path fill-rule="evenodd" clip-rule="evenodd" d="M5.733 1.682c-.972 1.442-4.21 2.46-4.742 2.3l-.003-.005.067-.13A7.732 7.732 0 013.982.78C4.434.522 4.899.506 5.052.5c1.441.027.689 1.17.68 1.182M4.92 12.493c.072.474-.002 2.347-.1 2.505-.083.005-.258.016-.764-.267a8.075 8.075 0 01-2.506-2.23A7.954 7.954 0 010 7.771a7.946 7.946 0 01.494-2.77h.001c.58.768 1.25 1.463 1.819 2.238.543.738 1.289 1.942 1.44 2.2.943 1.595 1.094 2.58 1.166 3.054zM16 7.609a7.982 7.982 0 01-.542 2.9C14.54 11.51 8.35 9.05 8.29 9.023c-.846-.376-3.423-1.52-3.655-3.317C4.3 3.12 9.475 1.318 11.749 1.25c.272.003 1.102.013 1.586.412a7.885 7.885 0 011.97 2.682A7.96 7.96 0 0116 7.608v.001zm-5.412 6.394c.37-1.324 3.606-2.68 4.32-2.753.088-.01.126.053.087.125-.745 1.369-1.848 2.496-3.182 3.227-.675.33-1.418.09-1.225-.6z" fill="#5493F7"/></svg>
